packages/icons/src/cv-solid.svg

<svg fill="none" viewBox="0 0 32 32" xmlns="http://www.w3.org/2000/svg" xmlns:xlink="http://www.w3.org/1999/xlink"><linearGradient id="a" gradientUnits="userSpaceOnUse" x1="7.5" x2="20.9259" y1="3" y2="28.9868"><stop offset="0" stop-color="#bea1ff"/><stop offset="1" stop-color="#8a36ff"/></linearGradient><g clip-rule="evenodd" fill-rule="evenodd"><path d="m25.9325 24.357c-2.3846 2.821-5.9494 4.6124-9.9325 4.6124-3.9832 0-7.54801-1.7915-9.93267-4.6126l6.02517-3.8342c1.0498.9018 2.415 1.4468 3.9075 1.4468 1.4924 0 2.8576-.5449 3.9074-1.4466zm1.0666-1.4548-5.9065-3.7587c.5751-.9207.9074-2.0086.9074-3.1741 0-3.008-2.2134-5.499-5.1004-5.933v-7.0364c6.7601.46205 12.1004 6.09205 12.1004 12.9694 0 2.5487-.7335 4.9262-2.0009 6.9328zm-11.8995-19.90215c-6.75966.46243-12.0996 6.09226-12.0996 12.96935 0 2.5487.73344 4.926 2.00078 6.9326l5.90652-3.7587c-.575-.9207-.9073-2.0085-.9073-3.1739 0-3.0077 2.213-5.4985 5.0996-5.9329z" fill="url(#a)"/><path d="m19.558 13.2859c.3391.3634.3195.9329-.0439 1.2721l-4.2857 4c-.3458.3227-.8824.3227-1.2282 0l-1.7143-1.6c-.3634-.3392-.383-.9087-.0438-1.2721.3391-.3634.9086-.383 1.272-.0438l1.1002 1.0268 3.6716-3.4268c.3634-.3392.9329-.3196 1.2721.0438z" fill="#ae82fc"/></g></svg>

<svg fill="none" viewBox="0 0 32 32" xmlns="http://www.w3.org/2000/svg" xmlns:xlink="http://www.w3.org/1999/xlink">
    <path fill-rule="evenodd" clip-rule="evenodd" d="M25.9325 24.357C23.5479 27.178 19.9831 28.9694 16 28.9694C12.0168 28.9694 8.45199 27.1779 6.06733 24.3568L12.0925 20.5226C13.1423 21.4244 14.5075 21.9694 16 21.9694C17.4924 21.9694 18.8576 21.4245 19.9074 20.5228L25.9325 24.357ZM26.9991 22.9022L21.0926 19.1435C21.6677 18.2228 22 17.1349 22 15.9694C22 12.9614 19.7866 10.4704 16.8996 10.0364V3C23.6597 3.46205 29 9.09205 29 15.9694C29 18.5181 28.2665 20.8956 26.9991 22.9022ZM15.0996 3.00005C8.33994 3.46248 3 9.09231 3 15.9694C3 18.5181 3.73344 20.8954 5.00078 22.902L10.9073 19.1433C10.3323 18.2226 10 17.1348 10 15.9694C10 12.9617 12.213 10.4709 15.0996 10.0365V3.00005Z" fill="url(#paint0_linear_20630_159361)"/>
    <path fill-rule="evenodd" clip-rule="evenodd" d="M19.558 13.2859C19.8971 13.6493 19.8775 14.2188 19.5141 14.558L15.2284 18.558C14.8826 18.8807 14.346 18.8807 14.0002 18.558L12.2859 16.958C11.9225 16.6188 11.9029 16.0493 12.2421 15.6859C12.5812 15.3225 13.1507 15.3029 13.5141 15.6421L14.6143 16.6689L18.2859 13.2421C18.6493 12.9029 19.2188 12.9225 19.558 13.2859Z" fill="#AE82FC"/>
    <defs>
    <linearGradient id="paint0_linear_20630_159361" x1="7.5" y1="3" x2="20.9259" y2="28.9868" gradientUnits="userSpaceOnUse">
    <stop stop-color="#BEA1FF"/>
    <stop offset="1" stop-color="#8A36FF"/>
    </linearGradient>
    </defs>
</svg>
